svgs/sharp-light/sidebar.svg

<svg xmlns="http://www.w3.org/2000/svg" viewBox="0 0 512 512"><!--! Font Awesome Pro 6.6.0 by @fontawesome - https://fontawesome.com License - https://fontawesome.com/license (Commercial License) Copyright 2024 Fonticons, Inc. --><path d="M480 64l0 384-256 0 0-384 256 0zM32 64l160 0 0 384L32 448 32 64zm0-32L0 32 0 64 0 448l0 32 32 0 448 0 32 0 0-32 0-384 0-32-32 0L32 32zM160 96L64 96l0 32 96 0 0-32zM64 160l0 32 96 0 0-32-96 0zm96 64l-96 0 0 32 96 0 0-32z"/></svg>

<svg xmlns="http://www.w3.org/2000/svg" viewBox="0 0 512 512"><!--! Font Awesome Pro 6.4.0 by @fontawesome - https://fontawesome.com License - https://fontawesome.com/license (Commercial License) Copyright 2023 Fonticons, Inc. --><path d="M480 64V448H224V64H480zM32 64H192V448H32V64zm0-32H0V64 448v32H32 480h32V448 64 32H480 32zM160 96H64v32h96V96zM64 160v32h96V160H64zm96 64H64v32h96V224z"/></svg>
